shader_type canvas_item;

uniform float speed = 0.1;
uniform sampler2D existing_screen_texture : hint_screen_texture, filter_linear_mipmap;
void vertex() {
	UV.x += TIME*speed;
}

void fragment() {
}

//void light() {
//	// Called for every pixel for every light affecting the CanvasItem.
//	// Uncomment to replace the default light processing function with this one.
//}
